flaticon/arrows/up-arrow-3.svg

<svg xmlns="http://www.w3.org/2000/svg" width="32" height="32" viewBox="0 0 24 24">
    <path d="M 12 4.976562 L 0 16.976562 L 2.050781 19.023438 L 12 9.074219 L 21.949219 19.023438 L 24 16.976562 Z M 12 7.710938 L 2.050781 17.660156 L 1.367188 16.976562 L 12 6.339844 L 22.632812 16.976562 L 21.949219 17.660156 Z M 12 7.710938"/>
</svg>

<svg xmlns="http://www.w3.org/2000/svg" width="32" height="32" viewBox="0 0 24 24">
    <path d="M12 4.977l-12 12 2.05 2.046L12 9.074l9.95 9.95L24 16.976zm0 2.734l-9.95 9.95-.683-.684L12 6.34l10.633 10.637-.684.683zm0 0"/>
</svg>
